X:1
T:Corinne, Corinna
C:Traditional
Z:www.realbook.site
L:1/4
M:4/4
I:linebreak $
K:Bb
V:1 treble nm=" " snm=" "
V:1
 D E =E |:"Bb6" F3/2 d/- d2 | z d/d/ d c | B4 |"Bb9" z d d c |$"Eb6" c/B/- B2 z | z c/c/ B/ G F/- | %7
"Bb6" F4 | z d d d |$"F7" d3/2 c/- c2 | z d d/c/- c |1"Bb6" B4 | z"Bb" D"Cm" E"Bbdim" =E :|2 %13
"Bb6" B4- || B z z2 |] %15

